X:674
%%etbk:tnset id:392,pos:3,rep:3x,ant:
%%etbk:wsite https://thesession.org/tunes/1846
%%etbk:wsite http://comhaltas.ie/music/detail/comhaltaslive_240_more_2007_highlights/
%%etbk:pldat 2015-12-15T17:41,2015-06-11T18:24,2015-05-18T18:27,2015-04-28T17:58,2015-04-15T17:04,2015-04-08T18:01,2015-04-06T12:03,2015-04-03T15:39,2015-04-02T17:09
T: The Mossy Banks
Z: Piano Box Version by Martin Fleischmann
H: Created 2015-03-30 /  Last Modified 2015-06-11
R: reel
M: 4/4
L: 1/8
K: Gmaj
|:!5!g!4!e!3!d!2!B !1!G3A|!3!BAGB !2!A!1!E~E2|!1!DEG!4!A !2!B!4!ddd|!2!edgd egga|
!4!g!2!e!1!d!3!B !1!GGGz|BAGB AE~E2|DEGA !2!B!3!d!5!g!4!e|1!3!dB!1!A!2!G !1!E!2!G!1!G2:|2dBAG EGGD:|:
|:!2!G3!4!B !3!ABG!1!E|!1!D2!4!BG AGE!3!A|!2!BBB!4!d !2!ed!4!gg|!1!B!2!A!1!GA BAAA|
!1!G2!2!GG AEE!1!E|!1!D!2!GBG AGE!3!A|!2!BGBd gedB|!1!A2!2!GA BGG2:|:
|:!3!g2!1!d!3!g !2!e!3!gdg|!3!~g2!5!b!3!g ag!1!ef|!3!g2dg eg!1!d!3!B|ABGA BGG2|
g2dg egdg|~g2bg aged|!3!g2!4!ga gfed|e/f/gfa gdef:|


